X:1
T:The Irishman
M:6/8
L:1/4
K:G
 D/2| D G/2 G G/2| G A/2 B G/2| A A/2 A c/2| B3/2 G G/2| D G/2 G G/2|\
 G A/2 B G/2| G G/2 G B/2| B d3/2 d/2| c d/2 e c/2| B c/2 d d/2| d B/2A/2-G/2 G/2|\
 d3/2 z D/2| D G/2 G G/2| G G/2 B G/2| A/2 A G F/2| G z||
